X: 11
T: Sixpenny Money
Z: tziguk
S: https://thesession.org/tunes/387#setting53430
R: jig
M: 6/8
L: 1/8
K: Dmaj
|:fAA fAA|BAG FGE|DED AFA|def e2d|
fAA fAA|BAG FGE|DED AFA|def e2 d:|
|:f2f gfg|afd edA|f2f gfg|afd e2 d|
fef gfg|afd edB|ABA AFA|def e2 d:|

%-------------------- TUNE SEPARATOR --------------------%

